X: 5875
T: Calum Campbell's Caprice
R: reel
M: 4/4
K: Amixolydian
|:e2|A2a2 gede|GGga e3f|g2GG gede|BdgG d2e2|
A2a2 gede|GGga e3f|gage dBde|A4 A2:|
|:ef|gage dBde|GBga e3f|g2GG gede|BdgG d2ef|
gage dBde|GBga e3f|gage dBde|A4 A2:|
|:e2|Acae gede|Acae gaef|g2GG gede|BdgG d2e2|
Acae gede|Acae gaef|gage dBde|A4 A2:|

